X:1
T:The World for God
T:Evangeline Booth (1865-1950)
T:The World for God
T:Public Domain
T:Public Domain
T:Public Domain
T:Public Domain
C:Evangeline Booth (1865-1950)
Z:Public Domain
%%score ( 1 2 ) ( 3 4 )
L:1/8
M:4/4
K:Ab
V:1 treble 
V:2 treble 
V:3 bass 
V:4 bass 
V:1
 ccc | c4- c[FAc][=EGc][Fc] | [=Ec]6 z [_Ec] | [Ee]3 [Gd] [Ac][AB][Ad][Ac] | B[EA][EG][=DF] E3 E | %5
w: 1.~The world for|for * God! There’s no-|else will|meet the hun- ger of my|soul. I see for- sak- en|
w: 2.~The world for|for * God! I call|arms the|sol- diers of the blood and|fire: Go with the Ho- ly|
w: 3.~The world for|for * God! For this,|Lord, give|to my soul con- sum- ing|fire. Give fire that makes men|
 [B,E]>[B,E] [DE][CE] [B,E] [B,E]2 [CE] | [DF]>[DF] [DF][DF] [CE]3 [CE] | %7
w: I see the tears that fall From|wo- men’s eyes once mer- ry,|
w: Its words are peace and life To|mul- ti- tudes who strug- gle|
w: turns weak- ness in- to might, The|fire that gives the cour- age|
 [DG]>[DG] [DG][DG] [DG] [DG]2 [DG] | [CA][CA][=DB][DB] [EB]3 [EB] | %9
w: now nev- er laugh at all; I|see the sins and sor- rows|
w: with crime and want and strife. Go|with your songs of mer- cy,|
w: to suf- fer for the fight, The|fire that chang- es fear- ing|
 [Cc]>[Cc] [=Dc][=Ec] [Fc] [Fc]2 [Fc] | [Ee]4- [Ee][Gd][Gc][GB] | (cB) [FA]4 z [FA] | %12
w: of those who sit in dark- ness;|I * see in lands|far * dis- tant,|
w: show Christ in lov- ing kind- ness,|Make * known the suf-|ferings * of~the cross,|
w: to Pen- te- cost- al dar- ing,|The * fire that makes|me * will- ing|
 [GB]>[GB] [GB][GB] ([Ac][Ac])[Ac][Ac] | [A=d]>[Ad] [Ad][Ad] [Ge]2 A[AB] |[M:3/4] (c f3) [Ge][Gd] | %15
w: hun- gry and op- pressed. * But be-|hold! On a hill, Cal- va- ry!|Cal- * va- ry!|
w: sac- ri- fice of God. * For be-|hold! On a hill, Cal- va- ry!|Cal- * va- ry!|
w: Christ to live or die; * For be-|hold! On a hill, Cal- va- ry!|Cal- * va- ry!|
 [Ac]4 [Ad][Ac] | [AB]4 [Gc][GB] |[M:4/4] [EA]4- [EA] ||"^Refrain" [ce][df][ce] | %19
w: ||||
w: world for God!|The world for|God! *|I give my|
w: ||||
 [Bd]4- [Bd][Bd][ce][Bd] | c4- ccdc | B4- BBcB | [EA]4- [EA][ce][df][ce] | %23
w: ||||
w: heart! * I’ll do my|part! * The world for|The * world for God!|give * my heart! I’ll|
w: ||||
 [Bd]4- [Bd][Bd][ce][Bd] | [Ac]4- [Ac][Ac][Gd][_Ge] | (FA[=Ae])[Bd] [_Ac]2 [GB]2 | [EA]4- [EA] |] %27
w: ||||
w: do * my part! *||||
w: ||||
V:2
 ccc | c4- c x3 | x8 | x8 | x4 E3 E | x8 | x8 | x8 | x8 | x8 | x8 | G2 x6 | x8 | x8 | %14
w: God! The world|thing *|||child- ren,|||||||the|||
w: God! The world|to *|||Bi- ble.|||||||the|||
w: God! The world|dear *|||he- roes,|||||||for|||
[M:3/4] A4 x2 | x6 | x6 |[M:4/4] x5 || x3 | x8 | A8 | G8 | x8 | x8 | x8 | f2 x6 | x5 |] %27
w: |||||||||||||
w: The||||||God!|I||||||
w: |||||||||||||
V:3
 CCC | C4- C[C,C][C,B,][C,A,] | [C,G,]6 z A, | [G,B,]3 [E,E] EDFE | %4
 [G,E][A,C]B,[B,,A,] [E,G,]3 E, | [E,G,]2 [E,B,][E,A,] [E,G,] [E,G,]2 [A,,_G,] | %6
 [D,F,]2 [D,A,]2 [A,,A,]3 A, | [E,B,]2 [E,B,]2 [=E,B,] [E,B,]3 | [F,A,]2 [B,,A,]2 [E,G,]3 [E,G,] | %9
 [=E,G,]2 [F,C][G,C] [A,C] [A,C]2 [A,C] | [G,B,]4- [G,B,][E,F][E,E][E,D] | %11
 [E,E][=E,D] [F,C]4 z [F,C] | [E,D]2 [E,D]2 ([A,C] [A,E]2) [F,F] | %13
 [B,F]2 [=B,F]2 [CE]2 [A,C][A,D] |[M:3/4] ([A,E] [D,D]3) [E,B,][=E,B,] | [F,A,]4 [F,D][E,E] | %16
 [D,F]4 [E,E][E,D] |[M:4/4] [A,C]4- [A,C] || z z2 | (z E,G,B, E4) | z A,,C,E, EEFE | %21
 z E,G,B, DDED | (z A,,C,E, A,2) A,2 | z E,G,B, [E,E]4 | (z A,,C,E, A,2) [A,B,][A,C] | %25
 [D,D]2 [C,E][D,F] [E,E]2 [D,D]2 | [A,,A,C]4- [A,,A,C] |] %27
V:4
 CCC | C4- C x3 | x7 A, | x4 F,2 F,2 | x7 E, | x8 | x7 A, | x8 | x8 | x8 | x8 | x8 | x8 | x8 | %14
[M:3/4] x6 | x6 | x6 |[M:4/4] x5 || x3 | E4 x4 | E4- A,4 | (D4- E,4) | C6 x2 | E4 x4 | E6 x2 | x8 | %26
 x5 |] %27

